dist/img/icons/icon-share-modal.svg

<svg width="43" height="44" viewBox="0 0 43 44" fill="none" xmlns="http://www.w3.org/2000/svg">
<path d="M9.7409 15.8108C8.93102 15.1782 7.75735 15.3223 7.1246 16.1321C6.90756 16.4099 6.95684 16.811 7.23457 17.0282C7.35127 17.1193 7.48975 17.1635 7.62713 17.1635C7.81685 17.1635 8.0047 17.0792 8.13059 16.9181C8.33002 16.6629 8.69976 16.6176 8.95477 16.8169C9.23259 17.0339 9.63374 16.9847 9.85079 16.7068C10.068 16.429 10.0187 16.0279 9.7409 15.8108Z" fill="black"/>
<path d="M16.2942 15.0062C15.4842 14.3734 14.3105 14.5176 13.6779 15.3274C13.4608 15.6053 13.51 16.0064 13.7878 16.2235C13.9045 16.3147 14.043 16.3589 14.1804 16.3589C14.3701 16.3589 14.558 16.2746 14.6838 16.1135C14.8832 15.8583 15.2528 15.8128 15.508 16.0123C15.7858 16.2293 16.187 16.18 16.4041 15.9023C16.6212 15.6245 16.5719 15.2233 16.2942 15.0062Z" fill="black"/>
<path d="M15.5567 19.9136L15.4839 19.3203C15.4524 19.0637 15.3228 18.8347 15.1191 18.6755C14.9153 18.5163 14.6618 18.4462 14.4053 18.4775L10.7393 18.9276C10.4826 18.9591 10.2537 19.0886 10.0945 19.2924C9.93525 19.4962 9.86503 19.7496 9.89652 20.0062L9.96938 20.5996C10.1586 22.1403 11.5656 23.2393 13.1061 23.0503C14.6465 22.8611 15.7459 21.454 15.5567 19.9136ZM12.9505 21.783C12.1097 21.887 11.34 21.2856 11.2367 20.4439L11.2014 20.1572L14.2543 19.7824L14.2895 20.0692C14.3929 20.9109 13.7922 21.6796 12.9505 21.783Z" fill="black"/>
<path d="M20.1698 2.94272C19.5432 1.60018 18.477 0.598279 17.0865 0.0452792C16.7809 -0.0761815 16.4331 0.0542165 16.2828 0.346676C15.596 1.68334 13.9369 2.63468 11.8447 2.89156L8.15322 3.34481C7.80331 3.38771 7.55443 3.7063 7.59741 4.05621C7.64031 4.40621 7.95924 4.65492 8.30881 4.61202L12.0003 4.15877C14.2466 3.88291 16.1038 2.88875 17.1011 1.45676C19.1817 2.5677 19.6866 4.89647 19.4611 6.64731C19.2266 8.46727 18.2697 9.83568 17.1343 9.9751L4.71334 11.5003C3.68241 11.6269 2.94667 12.5687 3.07323 13.5996L3.22585 14.8426L2.25842 14.9615L1.28869 7.06353C1.23728 6.64527 1.35193 6.23203 1.61128 5.89999C1.87071 5.56796 2.24395 5.35678 2.66221 5.30546L5.76052 4.92507C6.11043 4.88209 6.35931 4.56359 6.31633 4.21367C6.27335 3.86376 5.95467 3.61522 5.60493 3.65786L2.50662 4.03833C0.944479 4.23002 -0.170373 5.6569 0.021479 7.21904L1.02381 15.3827C0.376499 15.8443 0.0130526 16.6337 0.11349 17.4483C0.249505 18.5529 1.19004 19.3858 2.30123 19.3858C2.38771 19.3858 2.47793 19.3804 2.57241 19.3691L3.76361 19.2224L3.88056 20.1735C4.12527 22.1667 5.1316 23.9454 6.71399 25.1818C8.04912 26.2251 9.65944 26.7769 11.3272 26.7769C11.6361 26.7769 11.9471 26.7579 12.2585 26.7197C13.2203 26.6014 14.1338 26.3062 14.9734 25.8424C15.7865 25.3938 16.5019 24.8048 17.0999 24.0918C17.3264 23.8216 17.2911 23.419 17.021 23.1924C16.7508 22.9659 16.3482 23.0013 16.1216 23.2714C15.6252 23.8633 15.0314 24.3522 14.3564 24.7246C13.66 25.1093 12.9018 25.3541 12.1028 25.4525C10.4484 25.6556 8.81372 25.2022 7.50013 24.1758C6.18644 23.1493 5.35103 21.6727 5.14786 20.0178L4.95294 18.4329C4.93226 18.2649 4.84569 18.1119 4.71223 18.0077C4.57877 17.9034 4.40956 17.8564 4.24137 17.8772L2.41946 18.1017C2.37758 18.1067 2.33783 18.1091 2.30123 18.1091C1.83369 18.1091 1.43798 17.758 1.38061 17.2923C1.32937 16.8767 1.56378 16.4764 1.95055 16.3188C1.95123 16.3186 1.95183 16.3181 1.95251 16.3179C2.0275 16.2871 2.10742 16.2662 2.1899 16.2561L4.01496 16.032C4.36487 15.9891 4.61375 15.6705 4.57077 15.3206L4.34036 13.4438C4.29959 13.1116 4.53672 12.8081 4.86884 12.7673L16.6558 11.3201L17.5373 18.4969C17.6527 19.4339 17.5592 20.3595 17.2595 21.2484C17.1469 21.5825 17.3264 21.9446 17.6604 22.0573C17.7281 22.0801 17.7969 22.0909 17.8645 22.0909C18.1309 22.0909 18.3794 21.9228 18.4693 21.6564C18.8307 20.5847 18.9434 19.4692 18.8044 18.3411L17.9143 11.0938C19.3553 10.5805 20.4519 8.94792 20.7273 6.81057C20.9014 5.45969 20.7034 4.08608 20.1698 2.94272Z" fill="black"/>
<path d="M34.9691 32.9349C34.3364 32.125 33.1627 31.9809 32.3528 32.6136C32.075 32.8307 32.0257 33.2319 32.2428 33.5097C32.4599 33.7875 32.861 33.8368 33.1389 33.6197C33.394 33.4203 33.7638 33.4658 33.9631 33.7209C34.089 33.882 34.2768 33.9663 34.4666 33.9663C34.604 33.9663 34.7424 33.922 34.8591 33.8309C35.1369 33.6138 35.1861 33.2127 34.9691 32.9349Z" fill="black"/>
<path d="M28.4158 32.1302C27.7831 31.3204 26.6095 31.1761 25.7996 31.8089C25.5218 32.026 25.4725 32.4271 25.6895 32.705C25.9065 32.9827 26.3077 33.0322 26.5856 32.815C26.8406 32.6158 27.2104 32.661 27.4098 32.9162C27.5357 33.0773 27.7235 33.1616 27.9133 33.1616C28.0507 33.1616 28.1891 33.1174 28.3058 33.0263C28.5837 32.8092 28.6329 32.408 28.4158 32.1302Z" fill="black"/>
<path d="M31.3548 35.7304L27.6886 35.2802C27.4321 35.249 27.1785 35.3191 26.9749 35.4782C26.5165 35.8363 26.6235 36.3182 26.5373 36.7163C26.2303 39.2163 29.1091 40.8043 31.0638 39.2773C32.2386 38.3595 32.1206 37.0937 32.1975 36.809C32.2625 36.2794 31.8846 35.7955 31.3548 35.7304ZM30.2777 38.2712C29.9541 38.5241 29.5513 38.6357 29.1435 38.5858C28.2999 38.4823 27.7009 37.7157 27.8044 36.872L27.8397 36.5851L30.8925 36.96C30.8553 37.0953 30.9117 37.7759 30.2777 38.2712Z" fill="black"/>
<path d="M41.4886 21.9165C41.0192 21.3157 40.3439 20.9336 39.5872 20.8408L30.8154 19.7637C30.4879 19.7235 30.1886 19.5456 29.9939 19.2755C29.3865 18.4326 28.5605 17.7788 27.6051 17.3847C27.2791 17.2503 26.906 17.4056 26.7716 17.7315C26.6372 18.0575 26.7924 18.4306 27.1183 18.565C27.8537 18.8683 28.4899 19.3721 28.9581 20.0219C29.3601 20.5797 29.9804 20.9475 30.6598 21.0309L39.4316 22.108C40.295 22.214 40.9112 23.0027 40.8051 23.8661L39.8355 31.764L38.8679 31.6452L39.0206 30.402C39.147 29.3711 38.4113 28.4294 37.3804 28.3028L24.9595 26.7777C23.7924 26.6344 22.7609 26.0374 22.0549 25.0967C21.3493 24.1566 21.0646 22.998 21.2535 21.8342C21.5571 19.9631 23.088 18.4978 24.9763 18.2708C25.3263 18.2287 25.576 17.9109 25.5339 17.5608C25.4919 17.2108 25.1738 16.9608 24.824 17.0032C22.374 17.2976 20.3874 19.2002 19.9932 21.6298C19.7483 23.1394 20.1178 24.6428 21.0337 25.8632C21.821 26.912 22.9205 27.6304 24.1751 27.9303L23.2891 35.1436C23.1711 36.1043 23.2365 37.0626 23.4837 37.9918C23.5597 38.2775 23.8179 38.4662 24.1002 38.4662C24.1545 38.4662 24.2098 38.4592 24.2647 38.4446C24.6055 38.3539 24.8082 38.0043 24.7176 37.6636C24.5125 36.8927 24.4583 36.0973 24.5563 35.2992L25.4377 28.1227L37.2247 29.5699C37.5569 29.6107 37.794 29.9142 37.7533 30.2464L37.5228 32.1232C37.5022 32.2912 37.5492 32.4606 37.6533 32.594C37.7576 32.7274 37.9106 32.814 38.0786 32.8346L39.9036 33.0587C39.9813 33.0682 40.0563 33.088 40.1276 33.116C40.5248 33.2689 40.7653 33.6694 40.713 34.0949C40.6557 34.5606 40.2599 34.9117 39.7924 34.9117C39.7559 34.9117 39.7162 34.9092 39.6771 34.9045L37.8523 34.6798C37.6842 34.659 37.5148 34.7061 37.3813 34.8103C37.2478 34.9145 37.1613 35.0674 37.1406 35.2355L36.9457 36.8205C36.7425 38.4753 35.9071 39.9519 34.5934 40.9784C33.2798 42.0048 31.6456 42.4585 29.9906 42.2551C29.1223 42.1487 28.3038 41.8692 27.5579 41.4245C26.8365 40.9945 26.2181 40.4324 25.7198 39.7539C25.5111 39.4697 25.1116 39.4087 24.8274 39.6173C24.5433 39.826 24.4821 40.2255 24.6908 40.5097C25.2907 41.3264 26.0354 42.0032 26.9043 42.5211C27.8037 43.0574 28.7899 43.3943 29.8353 43.5223C30.1469 43.5606 30.4575 43.5795 30.7665 43.5795C32.4341 43.5795 34.0447 43.0276 35.3797 41.9844C36.9621 40.7479 37.9684 38.9692 38.2131 36.9762L38.33 36.025C39.4695 36.1603 39.5582 36.1883 39.7925 36.1883C40.9037 36.1883 41.8443 35.3554 41.9803 34.2506C42.0813 33.4268 41.7196 32.642 41.0702 32.1829L42.0722 24.0216C42.1654 23.2649 41.958 22.5173 41.4886 21.9165Z" fill="black"/>
<path d="M32.4514 5.35449C32.0988 5.35449 31.813 5.64031 31.813 5.99286L31.813 7.55551C31.813 7.90806 32.0988 8.19388 32.4514 8.19388C32.8039 8.19388 33.0897 7.90806 33.0897 7.55551L33.0897 5.99286C33.0897 5.64031 32.8039 5.35449 32.4514 5.35449Z" fill="black"/>
<path d="M32.4514 10.1587C32.0988 10.1587 31.813 10.4445 31.813 10.7971L31.813 12.3597C31.813 12.7123 32.0988 12.9981 32.4514 12.9981C32.8039 12.9981 33.0897 12.7123 33.0897 12.3597L33.0897 10.7971C33.0897 10.4445 32.8039 10.1587 32.4514 10.1587Z" fill="black"/>
<path d="M35.6341 8.53857L34.0715 8.53857C33.7189 8.53857 33.4331 8.82439 33.4331 9.17695C33.4331 9.5295 33.7189 9.81532 34.0715 9.81532L35.6341 9.81532C35.9867 9.81532 36.2725 9.5295 36.2725 9.17695C36.2725 8.82439 35.9867 8.53857 35.6341 8.53857Z" fill="black"/>
<path d="M30.8304 8.53857L29.2678 8.53857C28.9152 8.53857 28.6294 8.82439 28.6294 9.17695C28.6294 9.5295 28.9152 9.81532 29.2678 9.81532L30.8304 9.81532C31.183 9.81532 31.4688 9.5295 31.4688 9.17695C31.4688 8.82439 31.183 8.53857 30.8304 8.53857Z" fill="black"/>
<path d="M9.64277 30.5811C9.29021 30.5811 9.00439 30.8669 9.00439 31.2194L9.00439 32.7821C9.00439 33.1346 9.29021 33.4204 9.64277 33.4204C9.99532 33.4204 10.2811 33.1346 10.2811 32.7821L10.2811 31.2194C10.2811 30.8669 9.99532 30.5811 9.64277 30.5811Z" fill="black"/>
<path d="M9.64277 35.3843C9.29021 35.3843 9.00439 35.6701 9.00439 36.0226L9.00439 37.5853C9.00439 37.9378 9.29021 38.2237 9.64277 38.2237C9.99532 38.2237 10.2811 37.9378 10.2811 37.5853L10.2811 36.0226C10.2811 35.67 9.99532 35.3843 9.64277 35.3843Z" fill="black"/>
<path d="M12.826 33.7642L11.2634 33.7642C10.9108 33.7642 10.625 34.05 10.625 34.4025C10.625 34.7551 10.9108 35.0409 11.2634 35.0409L12.826 35.0409C13.1786 35.0409 13.4644 34.7551 13.4644 34.4025C13.4644 34.05 13.1787 33.7642 12.826 33.7642Z" fill="black"/>
<path d="M8.02222 33.7642L6.45966 33.7642C6.10711 33.7642 5.82129 34.05 5.82129 34.4025C5.82129 34.7551 6.10711 35.0409 6.45966 35.0409L8.02231 35.0409C8.37486 35.0409 8.66068 34.7551 8.66068 34.4025C8.66068 34.05 8.37477 33.7642 8.02222 33.7642Z" fill="black"/>
</svg>

<svg width="43" height="44" viewBox="0 0 43 44" fill="none" xmlns="http://www.w3.org/2000/svg"><path d="M9.74 15.81a1.866 1.866 0 0 0-2.615.322.639.639 0 0 0 1.006.786c.199-.255.569-.3.824-.101a.638.638 0 0 0 .786-1.006zM16.294 15.006a1.866 1.866 0 0 0-2.616.321.638.638 0 1 0 1.006.786c.2-.255.569-.3.824-.1a.639.639 0 0 0 .786-1.007zM15.557 19.914l-.073-.594a.962.962 0 0 0-.365-.645.962.962 0 0 0-.714-.198l-3.666.45a.961.961 0 0 0-.645.365.961.961 0 0 0-.197.714l.072.594a2.818 2.818 0 0 0 3.137 2.45 2.818 2.818 0 0 0 2.45-3.136zm-2.607 1.869a1.54 1.54 0 0 1-1.713-1.34l-.036-.286 3.053-.375.036.287a1.54 1.54 0 0 1-1.34 1.714z" fill="#000"/><path d="M20.17 2.943A5.638 5.638 0 0 0 17.086.045a.638.638 0 0 0-.803.302c-.687 1.336-2.346 2.288-4.438 2.545l-3.692.453a.638.638 0 1 0 .156 1.267L12 4.159c2.247-.276 4.104-1.27 5.101-2.702 2.08 1.11 2.586 3.44 2.36 5.19-.234 1.82-1.191 3.189-2.327 3.328L4.714 11.5a1.886 1.886 0 0 0-1.64 2.1l.152 1.243-.968.118-.97-7.897A1.567 1.567 0 0 1 1.612 5.9c.26-.332.633-.543 1.051-.595l3.099-.38a.638.638 0 0 0-.156-1.267l-3.098.38A2.857 2.857 0 0 0 .02 7.22l1.003 8.164a2.21 2.21 0 0 0-.91 2.065 2.208 2.208 0 0 0 2.458 1.921l1.192-.147.117.951a7.47 7.47 0 0 0 2.833 5.009 7.46 7.46 0 0 0 5.544 1.538 7.483 7.483 0 0 0 4.841-2.628.639.639 0 0 0-.977-.82 6.211 6.211 0 0 1-4.02 2.18A6.2 6.2 0 0 1 7.5 24.177a6.201 6.201 0 0 1-2.352-4.158l-.195-1.585a.638.638 0 0 0-.712-.556l-1.822.225a.93.93 0 0 1-.469-1.783l.003-.001a.92.92 0 0 1 .237-.062l1.825-.224a.638.638 0 0 0 .556-.711l-.23-1.877a.608.608 0 0 1 .528-.677l11.787-1.447.881 7.177a6.18 6.18 0 0 1-.277 2.751.638.638 0 0 0 1.21.408 7.445 7.445 0 0 0 .334-3.315l-.89-7.247c1.441-.513 2.538-2.146 2.813-4.283.174-1.351-.024-2.725-.557-3.868zM34.97 32.935a1.866 1.866 0 0 0-2.617-.321.638.638 0 0 0 .786 1.006.588.588 0 0 1 .824.1.637.637 0 1 0 1.006-.785zM28.416 32.13a1.866 1.866 0 0 0-2.616-.321.638.638 0 0 0 .786 1.006.588.588 0 0 1 .824.101.637.637 0 1 0 1.006-.786zM31.355 35.73l-3.666-.45a.963.963 0 0 0-.714.198c-.459.358-.352.84-.438 1.238-.307 2.5 2.572 4.088 4.527 2.561 1.175-.918 1.057-2.183 1.133-2.468a.969.969 0 0 0-.842-1.079zm-1.077 2.541a1.537 1.537 0 0 1-2.473-1.4l.035-.286 3.052.375c-.037.135.02.816-.614 1.311z" fill="#000"/><path d="M41.489 21.916a2.835 2.835 0 0 0-1.902-1.075l-8.772-1.077a1.196 1.196 0 0 1-.821-.488 5.554 5.554 0 0 0-2.389-1.891.638.638 0 0 0-.487 1.18 4.278 4.278 0 0 1 1.84 1.457 2.477 2.477 0 0 0 1.702 1.009l8.772 1.077a1.58 1.58 0 0 1 1.373 1.758l-.97 7.898-.967-.119.153-1.243a1.886 1.886 0 0 0-1.64-2.1l-12.422-1.524a4.248 4.248 0 0 1-2.904-1.681 4.253 4.253 0 0 1-.802-3.263 4.305 4.305 0 0 1 3.723-3.563.638.638 0 0 0-.152-1.268 5.587 5.587 0 0 0-4.83 4.627 5.52 5.52 0 0 0 1.04 4.233 5.507 5.507 0 0 0 3.141 2.067l-.886 7.214a7.481 7.481 0 0 0 .195 2.848.639.639 0 0 0 1.234-.328 6.21 6.21 0 0 1-.162-2.365l.882-7.176 11.787 1.447c.332.04.569.344.528.676l-.23 1.877a.64.64 0 0 0 .556.712l1.825.224a.923.923 0 0 1 .81 1.036.93.93 0 0 1-1.037.81l-1.825-.225a.638.638 0 0 0-.711.556l-.195 1.585a6.201 6.201 0 0 1-2.353 4.157 6.198 6.198 0 0 1-4.602 1.277 6.22 6.22 0 0 1-4.27-2.501.638.638 0 0 0-1.03.756 7.492 7.492 0 0 0 5.144 3.012 7.46 7.46 0 0 0 5.544-1.538 7.47 7.47 0 0 0 2.834-5.008l.117-.951c1.14.135 1.228.163 1.462.163a2.208 2.208 0 0 0 1.278-4.005l1.002-8.161a2.834 2.834 0 0 0-.583-2.105zM32.451 5.354a.638.638 0 0 0-.638.639v1.563a.638.638 0 0 0 1.277 0V5.993a.638.638 0 0 0-.639-.639zM32.451 10.159a.638.638 0 0 0-.638.638v1.563a.638.638 0 1 0 1.277 0v-1.563a.638.638 0 0 0-.639-.638zM35.634 8.539h-1.563a.638.638 0 1 0 0 1.276h1.563a.638.638 0 1 0 0-1.276zM30.83 8.539h-1.562a.638.638 0 1 0 0 1.276h1.562a.638.638 0 1 0 0-1.276zM9.643 30.581a.638.638 0 0 0-.639.638v1.563a.638.638 0 0 0 1.277 0V31.22a.638.638 0 0 0-.638-.638zM9.643 35.384a.638.638 0 0 0-.639.639v1.562a.638.638 0 0 0 1.277 0v-1.562a.638.638 0 0 0-.638-.639zM12.826 33.764h-1.563a.638.638 0 1 0 0 1.277h1.563a.638.638 0 1 0 0-1.277zM8.022 33.764H6.46a.638.638 0 1 0 0 1.277h1.562a.638.638 0 1 0 0-1.277z" fill="#000"/></svg>
